X:1
T:Title
%%score { 1 | 2 }
L:1/8
M:2/4
K:Bb
V:1 treble nm="Grand Piano"
V:2 bass 
V:1
 z2 z[Q:1/4=78] [DB]/[Ec]/ | [Fd][DF] [DB][Ec] | [Fd][Fd] [DB]B | cc cc |[M:3/8] c3 | %5
[M:1/8] [DB]/[Ec]/ |[M:2/4] [Fd][DF] [DB][Ec] | [Fd][Fd] [DB][DB] | c>B dc | [DB]4 | %10
 [Fd][DF] [DB][Ec] | [Fd][Fd] [DB]2 | dF Bc | dd c2 | [Fd][DF] [DB][Ec] | [Fd][Fd] [DB]2 | c2 dc | %17
[M:3/8] [DB]3 |[M:2/4] [Fd][DF] [DB][Ec] | [Fd][Fd] [DB]2 | dF Bc | dd c2 | [Fd][DF] [DB][Ec] | %23
 [Fd][Fd] [DB]2 | c2 dc |[M:3/8] [DB]3 |] %26
V:2
 z2 z [B,,F,] | [B,,F,][B,,F,] [B,,F,][B,,F,] | [B,,B,][B,,B,] [B,,F,][K:treble][B,D] | %3
 [A,CF][A,CF] [G,B,=E][G,B,E] |[M:3/8][K:bass] [F,A,F]3 |[M:1/8] [B,,F,] | %6
[M:2/4] [B,,F,][B,,B,] [B,,B,][B,,B,] | [B,,B,][B,,B,] [B,,F,][B,,B,] | %8
 [F,A,E]>[F,B,D] [F,B,F][F,A,E] | [B,,B,]4 | [B,,B,][B,,B,] [B,,B,][B,,B,] | %11
 [B,,B,][B,,B,] [B,,B,]2 | [B,F][B,D] [B,D][B,E] | [B,F][B,F][K:bass] [F,A,F]2 | %14
 [B,,B,][B,,B,] [B,,B,][B,,B,] | [B,,B,][B,,B,] [B,,B,]2 | [F,A,E]2 [F,B,F][F,A,E] | %17
[M:3/8] [B,,B,]3 |[M:2/4] [B,,B,][B,,B,] [B,,B,][B,,B,] | [B,,B,][B,,B,] [B,,B,]2 | %20
 [B,F][B,D] [B,D][B,E] | [B,F][B,F][K:bass] [F,A,F]2 | [B,,B,][B,,B,] [B,,B,][B,,B,] | %23
 [B,,B,][B,,B,] [B,,B,]2 | [F,A,E]2 [F,B,F][F,A,E] |[M:3/8] [B,,B,]3 |] %26

